!!!OTL@@FUR: Mieli
**kern
*clefG2
*k[b-]
*F:
*M3/4
*MM55
*>[A,A]
*>A
4c
8c
=1
4f
8f
4dd
8dd
=2
4cc
16dd
16cc
8a
8dd
8dd
=3
4.cc
[4.g
=4
4.g]
4b-
8b-
=5
[2.a
=6
4a]
8r
4c
8c
=7
4f
8f
4dd
8dd
=8
4cc
16dd
16cc
8a
8dd
8dd
=9
4.cc
[4.a
=10
4.a]
4b-
16cc
16b-
=11
[2.a
=12
4a]
8r
==:|!
*-
!!!ARE: Friuli
!!!ENC: Kelly Leistikow
!!!END: 2002/03/07
!!!ref: @{OTL@@FUR}
